svg/nature/lotus_fill.svg

<?xml version="1.0" encoding="UTF-8"?>
<svg width="24px" height="24px" viewBox="0 0 24 24" version="1.1" xmlns="http://www.w3.org/2000/svg" xmlns:xlink="http://www.w3.org/1999/xlink">
    <title>lotus_fill</title>
    <g id="Icon" stroke="none" stroke-width="1" fill="none" fill-rule="evenodd">
        <g id="Nature" transform="translate(-576.000000, -50.000000)" fill-rule="nonzero">
            <g id="lotus_fill" transform="translate(576.000000, 50.000000)">
                <path d="M24,0 L24,24 L0,24 L0,0 L24,0 Z M12.5935,23.2578 L12.5819,23.2595 L12.5109,23.295 L12.4919,23.2987 L12.4767,23.295 L12.4057,23.2595 C12.3958,23.2564 12.387,23.259 12.3821,23.2649 L12.378,23.2758 L12.3609,23.7031 L12.3659,23.7235 L12.3769,23.7357 L12.4805,23.8097 L12.4953,23.8136 L12.5071,23.8097 L12.6107,23.7357 L12.6233,23.7197 L12.6267,23.7031 L12.6096,23.2758 C12.6076,23.2657 12.601,23.2593 12.5935,23.2578 Z M12.8584,23.1453 L12.8445,23.1473 L12.6598,23.2397 L12.6499,23.2499 L12.6472,23.2611 L12.6651,23.6906 L12.6699,23.7034 L12.6784,23.7105 L12.8793,23.8032 C12.8914,23.8069 12.9022,23.803 12.9078,23.7952 L12.9118,23.7812 L12.8777,23.1665 C12.8753,23.1546 12.8674,23.147 12.8584,23.1453 Z M12.143,23.1473 C12.1332,23.1424 12.1222,23.1453 12.1156,23.1526 L12.1099,23.1665 L12.0758,23.7812 C12.0751,23.7927 12.0828,23.8019 12.0926,23.8046 L12.1083,23.8032 L12.3092,23.7105 L12.3186,23.7024 L12.3225,23.6906 L12.3404,23.2611 L12.3372,23.2485 L12.3278,23.2397 L12.143,23.1473 Z" id="MingCute"></path>
                <path d="M12,4 C11.3275,4 10.7655,4.43962 10.4014,4.80455 C9.98703,5.21994 9.58835,5.78259 9.24192,6.43459 C8.7927,7.28002 8.40491,8.32564 8.18709,9.49303 C7.52174,9.15118 6.87312,8.90531 6.28862,8.75271 C5.79622,8.62416 5.31604,8.55306 4.88995,8.56295 C4.52028,8.57153 3.9556,8.64492 3.55025,9.05027 C3.12858,9.47194 3.03749,10.0973 3.06733,10.6678 C3.09495,11.196 3.22982,11.8054 3.45177,12.4366 C3.69437,13.1265 4.05482,13.8815 4.54035,14.6337 C4.07427,14.8126 3.65862,15.0182 3.30994,15.2349 C2.68993,15.6202 2,16.2029 2,17 C2,18.0868 3.1933,18.7656 4.04619,19.1583 C5.07356,19.6314 6.46567,20 8,20 C9.54937,20 10.9603,19.6239 12,19.1368 C13.0397,19.6239 14.4506,20 16,20 C17.5343,20 18.9264,19.6314 19.9538,19.1583 C20.8067,18.7656 22,18.0868 22,17 C22,16.2029 21.3101,15.6202 20.6901,15.2349 C20.3414,15.0182 19.9258,14.8126 19.4597,14.6337 C19.9452,13.8815 20.3056,13.1265 20.5482,12.4367 C20.7702,11.8055 20.905,11.196 20.9327,10.6679 C20.9625,10.0973 20.8714,9.472 20.4497,9.05033 C20.0444,8.64498 19.4797,8.57159 19.11,8.56301 C18.684,8.55312 18.2038,8.62422 17.7114,8.75277 C17.1269,8.90537 16.4783,9.15124 15.8129,9.49308 C15.5951,8.32567 15.2073,7.28004 14.7581,6.43459 C14.4116,5.78259 14.013,5.21994 13.5986,4.80455 C13.2345,4.43962 12.6725,4 12,4 Z" id="路径" fill="#09244B"></path>
            </g>
        </g>
    </g>
</svg>

<svg xmlns="http://www.w3.org/2000/svg" width="24" height="24"><g fill="none" fill-rule="nonzero"><path d="M24 0v24H0V0h24ZM12.594 23.258l-.012.002-.071.035-.02.004-.014-.004-.071-.036c-.01-.003-.019 0-.024.006l-.004.01-.017.428.005.02.01.013.104.074.015.004.012-.004.104-.074.012-.016.004-.017-.017-.427c-.002-.01-.009-.017-.016-.018Zm.264-.113-.014.002-.184.093-.01.01-.003.011.018.43.005.012.008.008.201.092c.012.004.023 0 .029-.008l.004-.014-.034-.614c-.003-.012-.01-.02-.02-.022Zm-.715.002a.023.023 0 0 0-.027.006l-.006.014-.034.614c0 .012.007.02.017.024l.015-.002.201-.093.01-.008.003-.011.018-.43-.003-.012-.01-.01-.184-.092Z"/><path fill="#09244B" d="M12 4c-.672 0-1.235.44-1.599.805-.414.415-.813.978-1.16 1.63-.448.845-.836 1.89-1.054 3.058a9.42 9.42 0 0 0-1.898-.74c-.493-.129-.973-.2-1.399-.19-.37.009-.934.082-1.34.487-.421.422-.513 1.047-.483 1.618.028.528.163 1.137.385 1.769.242.69.603 1.445 1.088 2.197a7.31 7.31 0 0 0-1.23.6C2.69 15.62 2 16.204 2 17c0 1.087 1.193 1.766 2.046 2.158C5.074 19.631 6.466 20 8 20c1.55 0 2.96-.376 4-.863 1.04.487 2.45.863 4 .863 1.534 0 2.926-.369 3.954-.842C20.807 18.766 22 18.087 22 17c0-.797-.69-1.38-1.31-1.765a7.31 7.31 0 0 0-1.23-.601c.485-.752.846-1.508 1.088-2.197.222-.631.357-1.241.385-1.77.03-.57-.062-1.195-.483-1.617-.406-.405-.97-.478-1.34-.487-.426-.01-.906.061-1.399.19a9.422 9.422 0 0 0-1.898.74 10.808 10.808 0 0 0-1.055-3.058c-.346-.652-.745-1.215-1.16-1.63C13.235 4.44 12.673 4 12 4Z"/></g></svg>
